X:211
T:The Full Moon Reel
R:reel
C:Bruce Osborne - Feb.2003
Z:abc by bosborne@kos.net
M:2/4
L:1/8
K:Cmaj
g/f/|ec c/B/c/d/|c/G/E/G/ c/e/d/c/|B/G/D/G/ B/d/c/B/|c/B/c/d/ eg/f/|\
ec c/B/c/d/|c/G/E/G/ c/e/d/c/|B/G/D/G/ B/d/c/B/|c/B/c/d/ c:|
|:e/f/|g/e/c/A/ G/c/B/c/|G/F/E/D/ Cd/e/|f/d/^c/d/ G/d/^c/d/|e/c/c/B/ ce/f/|\
g/c/B/c/ G/c/B/c/|G/F/E/D/ Cd/e/|f/d/^c/d/ G/d/^c/d/|e/c/c/B/ c:|
